X: 3401
T: SHOULD OUR PRAISE OF BRITAIN'S ISLE
%R: air, jig
B: James Kerr "Merry Melodies" v.3 p.44 #401
Z: 2016 John Chambers <jc:trillian.mit.edu>
M: 6/8
L: 1/8
K: G
D |\
B2B BAB | d2B BAB | c2e g2e | d2B BAB |\
c2A AGA | B2G GFG | E2e d2c | B2G G2 H:|
d |\
d2c Bcd | e2f g2a | b2a gfe | d2c Bcd |\
e2e ecA | d2d dBG | c2A B2G | A3 "_D.C."d2 |]

%%sep 1 1 500
%%sep 1 1 500

